X: 44
T: Graceful Move, The
R:Reel
S:MacDonald - Skye Collection
N:pg.48
M:C
L:1/8
K:A Mix
e|Acec fdec|Acec e2c2|Acec fdec|fBBc d2c2:|
|:ABca ecca|ecca e2c2|ABca ecce|fBBc d2c2|ABca eaca|eaca e2c2|
ABca eace|fBBc d2c2||AAAg fdec|AAAf e2c2|AAAg fdec|fBBc d2c2:|
aece Acec|fBBc d2c2|aece Acec|aece e2c2|aece Aece|dfBc d2c||


